X: 569
T: Dinkey’s
B: good tune book
B: tunes
M:4/4
R: reel
Q: 1/4=100
K:Amixolydian
V:1 
|:fed|"A"{cd}c2 Bc ABcd|"Em"egfd edBd|"G"gB B/B/B gBaB|gB B/B/B gfed|
 "A"{cd}c2 Bc ABcd|"Em"egfd edBd|"G"{a}(gfg)e "D"dfed|"E7"cdBc "A"A:|
 |:ef^g|"A"aA A/A/A aAbA|aA A/A/A {b}agef|"G"gB B/B/B gBaB|gB B/B/B "Em"{a}gfeg|
 [1 "A"aA A/A/A aAbA|aA A/A/A {b}agef|"G"{a}(gfg)e "D"dfed|"E7"cdBc "A"A:|
 [2 "A"aA A/A/A "G"gA A/A/A|"D"fA A/A/A "A"eA A/A/A|"G"{a}(gfg)e "D"dfed|"E7"cdBc "A"A||
% abcbook-tune_id 63dce2dcd0142b609973bd32
% abcbook-tune_composer_id 
% abcbook-link-0 https://www.youtube.com/watch?v=dqf3io8XKUY
% abcbook-link-title-0 Paddy Fahey&#39;s / Dinkey&#39;s / Jenny&#39;s Chicken
% abcbook-link-start-at-0 71
% abcbook-link-end-at-0 139
% abcbook-boost 0
% abcbook-difficulty 0
% abcbook-tags good tune book
% abcbook-tablature 
% abcbook-transpose 
% abcbook-tuning 
% abcbook-lastupdated 1675427410920
% abcbook-soundfonts 
% abcbook-repeats 1


